joy.svg

<svg width="96" height="128" viewBox="0 0 6 8" xmlns="http://www.w3.org/2000/svg"><path d="m3 0 1 1-1 1-1-1m-1 1 1 1-2 2 2 2-1 1-1-1 2-2-2-2m5-1 1 1-2 2 2 2-1 1-1-1 2-2-2-2"/></svg>

<svg width="96" height="128" viewBox="0 0 6 8" xmlns="http://www.w3.org/2000/svg"><path d="M3 0 4 1 3 2 2 1M1 2 2 3 0 5 2 7 1 8 0 7 2 5 0 3M5 2 6 3 4 5 6 7 5 8 4 7 6 5 4 3"/></svg>
